X:35
T:Neill Gow. JMP.035
M:2/4
L:1/8
Q:1/4=100
C:Neil Gow
S:John Miller MS. Perth, 1799.(for the fife)
R:.Reel
O:Scotland
A:Perth
N:Neil Gowâ€™s Reel, with the parts reversed, according to Rossâ€™s Pipe
N:Music 1885
N:1 â€“ this bar illegible
H:1799
Z:vmp.C. Graebe
K:D major
â€œ_Key Gmaj in MSâ€
f | ecae | fBBf | ecae | f3 a |!
a/g/f/e/ a>e | fBBf |a>fec | A3 :|!
|:E | A<AA<A | BEEB | A<AA<A | aefa |!
ea c/e/d/B/ | BFFf | afec | â€œ1â€A3:|

